X:318
T: Philip McCue
N: O'Farrell's Pocket Companion v.4 (Sky ed. p.141)
N: "Irish"
% There's a children's song in Gaelic called "Rinnce Pilib a Cheoil" (Dance of
% Musical Philip) that has the same melody as this tune.
M: 9/8
R: slip jig
L: 1/8
Q: 320
K: G
D|: GAG B2G c2A| G2G cAG F2A| G2G B2G c2A| ded cAF G3 :|
P:2
A2A ABG FEF| D2A A2G F3| A2A ABG FGA| B2G cAF G3 :|
P:3
GBd gfg dBG| fed cAG F2A| GBd gfg dBG| fed cAF G3 :|
P:4
AFd BGd AFD| EFE AFD F3 | AFd BGd AFD| EFE AFD G3 :|
P:5
GAB/c/ dBB cAA| BGG cAG F2A| GAB/c/ dBB cAA|  BGG cAF G3:|
P:6
A2D AFD FED| EGE AFD F3| A2D AFD FED| EGE AFD G3 :|
